X:1
T:My Anchor Holds
T:Daniel Brink Towner
T:My Anchor Holds
T:Public Domain
T:Public Domain
C:Daniel Brink Towner
Z:Public Domain
%%score ( 1 2 ) ( 3 4 )
L:1/8
M:4/4
K:C
V:1 treble 
V:2 treble 
V:3 bass 
V:4 bass 
V:1
 G>G | c3 G E2 F2 | G6 [EG]>[EG] | [FA]3 [FA] [FA]2 [FA]2 | [EG]6 [EG]>[EG] | %5
w: 1.~Though the|surg- es roll On|en soul, I|peace- ful, for I|know, Wild- ly|
w: 2.~Might- y|bout me sweep, Per-|the deep, Ang-|clouds o’er- shade the|sky, And the|
w: 3.~I can|anch- or fast As|den blast, And|ca- ble, though un-|seen, Bears the|
w: 4.~Trou- bles|’whelm the soul; Griefs|me roll; Tempt-|seek to lure a-|stray; Storms ob-|
 [FB]3 [FB] [FA]2 [FG]2 | [Ec]6 [Gc]>[Gc] | [^Fc]3 [Fc] [FA]2 [Fd]2 | [Gd]6 [FG]>[FG] | %9
w: though the winds may|blow, I’ve an|an- chor safe and|sure, That can|
w: temp- est ris- es|high; Still I|stand the temp- est’s|shock, For my|
w: hea- vy strain be-|tween; Through the|storm I safe- ly|ride, Till the|
w: scure the light of|day: But in|Christ I can be|bold, I’ve an|
 [Ec]3 [Ec] [Gd]2 [Gd]2 | [Ge]6 [Fd]>[Fd] | [Ec]3 [Fd] [Ec]2 [DB]2 | [Ec]6 ||"^Refrain" [FG]>[FG] | %14
w: ev- er- more en-|dure. * *||||
w: anch- or grips the|rock. * *||||
w: turn- ing of the|tide. And it|holds, my an- chor|holds:|Blow your|
w: an- chor that shall|hold. * *||||
 [Ec]3 [Fc] [Gc]2 [Ac]2 | (G2 F2 E2) G>G | [Gd]3 [Gd] [Gd]2 [Gd]2 | [Gd]6 [FG]>[FG] | %18
w: ||||
w: ||||
w: wild- est, then, O|gale, * * On my|and frail; By His|grace I shall|
w: ||||
 [Ec]3 [Fc] [Gc]2 [G_B]2 | [FA]6 [FA]>[FA] | [^Fd]3 [Fe] [Fd]2 [Fc]2 | [GB]6 [FG]>[FG] | %22
w: ||||
w: ||||
w: not fail, For my|an- chor holds,|my an- chor holds.||
w: ||||
 (E2 F2) (G2 F2) | (E2 G2 E2) [Fd]2 | [Ge]4 [Fd]4 | [Ec]6 |] %26
w: ||||
w: ||||
w: ||||
w: ||||
V:2
 G>G | c3 G E2 F2 | G6 x2 | x8 | x8 | x8 | x8 | x8 | x8 | x8 | x8 | x8 | x6 || x2 | x8 | c6 G>G | %16
w: ang- ry|my temp- est driv-|am||||||||||||||
w: tides a-|ils lurk with- in|ry||||||||||||||
w: feel the|I meet each sud-|the|||||||||||||bark so small|
w: al- most|like bil- lows o’er|ers||||||||||||||
 x8 | x8 | x8 | x8 | x8 | x8 | c4 c4 | c6 x2 | x8 | x6 |] %26
w: ||||||||||
w: ||||||||||
w: ||||||||||
w: ||||||||||
V:3
 G,>G, | C3 G, E,2 F,2 | G,6 [C,C]>[C,C] | [F,C]3 [F,C] [F,C]2 [F,C]2 | [C,C]6 [C,C]>[C,C] | %5
 G,3 G, [G,B,]2 [G,B,]2 | [C,C]6 [E,C]>[E,C] | [D,A,]3 [D,A,] [D,C]2 [D,C]2 | %8
 [G,B,]6 [G,B,]>[G,B,] | [C,C]3 [C,C] [G,B,]2 [G,B,]2 | C6 [F,A,]>[F,A,] | G,3 G, G,2 [G,,G,]2 | %12
 [C,G,]6 || [G,B,]>[G,B,] | [C,C]3 [D,C] [E,C]2 [F,C]2 | (E,2 D,2 C,2) [E,C]>[E,C] | %16
 [G,B,]2 [A,C]2 [B,D]2 [A,C]2 | ([G,B,]2 [F,B,]2 [D,B,]2) [B,,G,]>[B,,G,] | %18
 [C,G,]3 [D,G,] [E,C]2 [E,C]2 | [F,C]6 [F,C]>[E,C] | [D,C]3 [D,B,] [D,A,]2 [D,A,]2 | %21
 [G,,G,]6 [G,B,]>[G,B,] | (C,2 D,2) (E,2 D,2) | (C,2 E,2 A,2) [_A,D]2 | [G,C]4 [G,B,]4 | [C,C]6 |] %26
V:4
 G,>G, | C3 G, E,2 F,2 | G,6 x2 | x8 | x8 | G,3 G, x4 | x8 | x8 | x8 | x8 | C6 x2 | x8 | x6 || x2 | %14
 x8 | G,6 x2 | x8 | x8 | x8 | x8 | x8 | x8 | C4 C4 | E6 x2 | x8 | x6 |] %26

